svg/color/ark.svg

<?xml version="1.0" encoding="UTF-8" ?>
<!DOCTYPE svg PUBLIC "-//W3C//DTD SVG 1.1//EN" "http://www.w3.org/Graphics/SVG/1.1/DTD/svg11.dtd">
<svg width="250pt" height="250pt" viewBox="0 0 250 250" version="1.1" xmlns="http://www.w3.org/2000/svg">
<g id="#ffffffff">
<path fill="#ffffff" opacity="1.00" d=" M 0.00 0.00 L 250.00 0.00 L 250.00 250.00 L 0.00 250.00 L 0.00 0.00 M 3.81 222.01 C 17.09 209.26 29.36 195.51 42.41 182.53 C 67.15 156.91 91.95 131.35 116.77 105.81 C 119.80 102.84 122.32 99.33 125.84 96.90 C 152.50 124.95 179.73 152.45 206.49 180.40 C 220.28 194.09 233.22 208.61 247.25 222.05 C 208.01 159.77 168.89 97.41 129.68 35.11 C 128.21 32.87 126.81 30.57 125.66 28.15 C 85.07 92.78 44.43 157.39 3.81 222.01 M 104.55 147.37 C 118.44 147.36 132.32 147.48 146.20 147.32 C 142.24 142.86 137.94 138.71 133.92 134.31 C 131.01 131.44 128.51 128.13 125.16 125.74 C 118.36 133.01 111.49 140.22 104.55 147.37 M 90.82 161.39 C 84.51 168.27 77.93 174.90 71.45 181.60 C 71.48 181.75 71.54 182.04 71.57 182.18 C 107.72 182.20 143.88 182.28 180.04 182.13 C 173.63 175.52 167.20 168.94 160.88 162.25 C 159.70 160.78 157.58 161.53 155.99 161.32 C 134.26 161.40 112.54 161.27 90.82 161.39 Z" />
</g>
<g id="#bd0202ff">
<path fill="#bd0202" opacity="1.00" d=" M 3.81 222.01 C 44.43 157.39 85.07 92.78 125.66 28.15 C 126.81 30.57 128.21 32.87 129.68 35.11 C 168.89 97.41 208.01 159.77 247.25 222.05 C 233.22 208.61 220.28 194.09 206.49 180.40 C 179.73 152.45 152.50 124.95 125.84 96.90 C 122.32 99.33 119.80 102.84 116.77 105.81 C 91.95 131.35 67.15 156.91 42.41 182.53 C 29.36 195.51 17.09 209.26 3.81 222.01 Z" />
<path fill="#bd0202" opacity="1.00" d=" M 104.55 147.37 C 111.49 140.22 118.36 133.01 125.16 125.74 C 128.51 128.13 131.01 131.44 133.92 134.31 C 137.94 138.71 142.24 142.86 146.20 147.32 C 132.32 147.48 118.44 147.36 104.55 147.37 Z" />
<path fill="#bd0202" opacity="1.00" d=" M 90.82 161.39 C 112.54 161.27 134.26 161.40 155.99 161.32 C 157.58 161.53 159.70 160.78 160.88 162.25 C 167.20 168.94 173.63 175.52 180.04 182.13 C 143.88 182.28 107.72 182.20 71.57 182.18 C 71.54 182.04 71.48 181.75 71.45 181.60 C 77.93 174.90 84.51 168.27 90.82 161.39 Z" />
</g>
</svg>

<?xml version="1.0" encoding="utf-8"?>
<!-- Generator: Adobe Illustrator 26.0.3, SVG Export Plug-In . SVG Version: 6.00 Build 0)  -->
<svg version="1.1" id="Layer_1" xmlns="http://www.w3.org/2000/svg" xmlns:xlink="http://www.w3.org/1999/xlink" x="0px" y="0px"
	 viewBox="0 0 250 250" style="enable-background:new 0 0 250 250;" xml:space="preserve">
<style type="text/css">
	.st0{fill:#BD0202;}
</style>
<g id="_x23_bd0202ff">
	<path class="st0" d="M3.8,222C44.4,157.4,85.1,92.8,125.7,28.1c1.1,2.4,2.6,4.7,4,7c39.2,62.3,78.3,124.7,117.6,186.9
		c-14-13.4-27-28-40.8-41.7c-26.8-27.9-54-55.4-80.7-83.5c-3.5,2.4-6,5.9-9.1,8.9c-24.8,25.5-49.6,51.1-74.4,76.7
		C29.4,195.5,17.1,209.3,3.8,222z"/>
	<path class="st0" d="M104.6,147.4c6.9-7.1,13.8-14.4,20.6-21.6c3.3,2.4,5.8,5.7,8.8,8.6c4,4.4,8.3,8.6,12.3,13
		C132.3,147.5,118.4,147.4,104.6,147.4z"/>
	<path class="st0" d="M90.8,161.4c21.7-0.1,43.4,0,65.2-0.1c1.6,0.2,3.7-0.5,4.9,0.9c6.3,6.7,12.8,13.3,19.2,19.9
		c-36.2,0.1-72.3,0.1-108.5,0c0-0.1-0.1-0.4-0.1-0.6C77.9,174.9,84.5,168.3,90.8,161.4z"/>
</g>
</svg>
